dist/img/Logo.svg

<svg width="480" height="100" viewBox="0 0 480 100" fill="none" xmlns="http://www.w3.org/2000/svg">
<path d="M39.0793 29.4464L40.175 25.7485H48.6665L45.3338 39.9467H36.7966C36.6597 37.801 35.701 36.0205 33.8292 34.7879C31.9117 33.4639 29.3095 32.8705 25.9311 32.8705C23.1919 32.8705 20.9093 33.4639 19.357 34.5596C17.8048 35.6553 16.9831 37.0706 16.9831 38.7597C16.9831 40.312 17.4396 41.4989 18.5353 42.3664C19.631 43.1881 21.7767 44.2838 25.1094 45.6078L27.8486 46.7034C33.6009 49.0774 37.3901 51.497 39.4445 53.871C41.499 56.245 42.412 59.1212 42.412 62.7278C42.412 67.2475 40.7228 70.8541 37.2532 73.5933C33.7835 76.3325 28.7617 77.6565 22.3245 77.6565C16.2526 77.6565 11.8242 76.2412 9.17634 73.365L8.58284 76.6977H0L3.3327 62.4995H11.9155C11.9155 64.8735 13.0112 66.7909 15.02 68.1149C17.0287 69.4388 19.8136 70.1236 23.2832 70.1236C26.2507 70.1236 28.6703 69.5301 30.4508 68.3432C32.2313 67.1562 33.0987 65.604 33.0987 63.6865C33.0987 61.7691 32.3683 60.2168 30.8161 59.0299C29.2638 57.8429 26.6159 56.382 22.918 54.9667L19.2201 53.5514C15.3852 51.8623 12.509 49.9448 10.6372 47.7991C8.76546 45.6534 7.89804 43.0055 7.89804 39.9011C7.89804 37.2532 8.6285 34.7422 10.1807 32.5965C11.7329 30.4508 13.8786 28.5334 16.7548 27.3464C19.631 26.0224 22.7354 25.4289 26.2051 25.4289C31.1813 25.0181 35.6097 26.4333 39.0793 29.4464Z" fill="white"/>
<path d="M102.629 46.1556C102.629 52.2275 101.305 57.7516 98.5657 62.6365C95.8265 67.5214 92.1286 71.2193 87.4719 74.0042C82.8153 76.7434 77.7934 78.0673 72.315 78.0673C67.7953 78.0673 63.7321 77.1086 60.3538 75.3281C56.9754 73.5476 54.2819 70.8997 52.4558 67.704C50.5383 64.3713 49.5796 60.5364 49.5796 56.245C49.5796 50.2644 50.9948 44.786 53.871 39.9924C56.7472 35.1075 60.5821 31.4095 65.2387 28.6247C70.0323 25.8855 75.1455 24.5615 80.6696 24.5615C87.3806 24.5615 92.7221 26.479 96.6939 30.4052C100.62 34.1031 102.629 39.3532 102.629 46.1556ZM72.7715 68.9823C76.6064 68.9823 79.9391 67.8866 82.9066 65.8779C85.8741 63.8691 88.2937 60.9929 89.9372 57.5233C91.6264 54.0536 92.4481 50.2187 92.4481 46.2925C92.4481 42.2294 91.2612 39.125 88.8415 36.8423C86.4676 34.5596 83.2262 33.5096 78.9347 33.5096C75.4651 33.5096 72.2237 34.4683 69.3932 36.4771C66.517 38.4858 64.143 41.1337 62.4539 44.4664C60.7647 47.7991 59.9429 51.4057 59.9429 55.2406C60.0799 64.3256 64.4169 68.9823 72.7715 68.9823Z" fill="white"/>
<path d="M191.151 46.1556C191.151 52.2275 189.827 57.7516 187.088 62.6365C184.348 67.5214 180.651 71.2193 175.994 74.0042C171.337 76.7434 166.315 78.0673 160.837 78.0673C156.317 78.0673 152.254 77.1086 148.876 75.3281C145.543 73.5476 142.804 70.8997 140.978 67.704C139.06 64.3713 138.102 60.5364 138.102 56.245C138.102 50.2644 139.517 44.786 142.393 39.9924C145.269 35.1075 149.104 31.4095 153.761 28.6247C158.554 25.8855 163.667 24.5615 169.192 24.5615C175.903 24.5615 181.244 26.479 185.216 30.4052C189.142 34.1031 191.151 39.3532 191.151 46.1556ZM161.293 68.9823C165.128 68.9823 168.461 67.8866 171.429 65.8779C174.396 63.8691 176.816 60.9929 178.459 57.5233C180.148 54.0536 180.97 50.2187 180.97 46.2925C180.97 42.2294 179.783 39.125 177.363 36.8423C174.99 34.5596 171.748 33.5096 167.457 33.5096C163.987 33.5096 160.746 34.4683 157.915 36.4771C155.039 38.4858 152.665 41.1337 150.976 44.4664C149.287 47.7991 148.465 51.4057 148.465 55.2406C148.648 64.3256 152.802 68.9823 161.293 68.9823Z" fill="white"/>
<path d="M231.554 34.1031C225.345 34.1031 220.186 36.1118 216.26 40.312C212.334 44.5121 209.458 50.3557 207.769 57.8885L205.623 67.9323H213.978L211.969 76.5151H187.225L189.233 67.9323H195.944L203.705 34.377H195.807L197.953 25.6572H214.434L211.101 40.1293C214.069 34.7422 217.31 30.9074 220.78 28.5334C224.25 26.1594 228.769 24.9268 234.293 24.9268H236.302L234.019 34.2401C232.741 34.1944 231.919 34.1031 231.554 34.1031Z" fill="white"/>
<path d="M312.087 24.5615C316.378 24.5615 320.35 25.7485 323.683 28.1682C327.015 30.5878 329.663 33.7835 331.444 37.8467C333.224 41.9098 334.183 46.2013 334.183 50.9949C334.183 55.7885 333.361 60.2169 331.535 64.28C329.755 68.3432 327.244 71.5846 323.911 73.9585C320.67 76.3325 316.88 77.5652 312.543 77.5652C307.156 77.5652 302.271 75.4194 297.706 70.8541V76.6977H272.734V65.0105H281.59V15.3396H272.734V3.65228H297.706V31.5922C301.815 26.9355 306.608 24.5615 312.087 24.5615ZM307.658 64.7822C310.763 64.7822 313.137 63.4582 314.963 60.9473C316.743 58.4364 317.611 54.9667 317.611 50.6753C317.611 46.4752 316.789 43.2794 314.963 40.9968C313.182 38.8511 310.763 37.6641 307.795 37.6641C304.691 37.6641 302.18 38.988 300.399 41.499C298.619 44.0099 297.752 47.3426 297.752 51.5427C297.752 55.4689 298.71 58.5733 300.491 61.0843C302.18 63.5952 304.691 64.7822 307.658 64.7822Z" fill="white"/>
<path d="M386.776 46.0643V64.9648H395.039V76.6521H370.66V72.7259C366.003 75.8303 361.438 77.5195 356.781 77.5195C351.166 77.5195 346.738 76.1042 343.405 73.2281C340.072 70.3519 338.383 66.517 338.383 61.6321C338.383 56.4733 340.3 52.3188 343.998 49.2144C347.696 46.1099 352.718 44.5577 358.927 44.5577C361.073 44.5577 362.99 44.786 364.679 45.2882C366.369 45.7447 368.377 46.6121 370.523 47.6622V43.599C370.523 40.9511 369.701 38.9424 368.149 37.3901C366.46 35.8379 364.086 35.1075 360.845 35.1075C357.375 35.1075 354.133 36.4314 351.531 39.1706L338.52 36.7966C342.446 28.8073 350.709 24.7441 363.127 24.7441C371.619 24.7441 377.691 26.5246 381.389 29.9943C384.95 33.2813 386.776 38.7597 386.776 46.0643ZM360.342 67.2931C363.219 67.2931 366.688 65.5126 370.614 62.043V57.5233C367.145 55.2406 363.903 54.1906 361.073 54.1906C358.79 54.1906 357.01 54.7841 355.686 55.8798C354.499 56.9755 353.905 58.5277 353.905 60.5364C353.768 65.0561 356.051 67.2931 360.342 67.2931Z" fill="white"/>
<path d="M422.979 63.9604C425.718 63.9604 428.731 62.7734 431.927 60.2625V37.5728H424.166V25.6116H448.18V64.7822H456.534V76.4695H432.018V72.2694C426.996 75.6021 421.975 77.2912 417.181 77.2912C412.296 77.2912 408.461 75.9673 405.722 73.2281C402.983 70.4889 401.659 66.654 401.659 61.8604V37.6641H394.035V25.7485H417.82V57.7516C417.82 60.1256 418.185 61.8147 419.007 62.6365C419.875 63.5039 420.925 63.9604 422.979 63.9604Z" fill="white"/>
<path d="M468.313 64.7822H480V76.4695H468.313V64.7822Z" fill="#F4B301"/>
<path d="M107.879 26.2051H118.151L120.16 17.3483C120.89 14.2439 121.849 11.596 123.127 9.45026C124.451 7.30455 126.003 5.52406 127.647 4.06315C129.427 2.6479 131.345 1.68918 133.628 0.958722C135.773 0.365227 138.147 0 140.795 0C142.347 0 143.763 0.13696 145.087 0.228267C146.41 0.456534 147.597 0.684801 148.693 0.958722C149.789 1.18699 150.702 1.55222 151.569 1.91744C152.391 2.28267 153.122 2.6479 153.715 2.87616L148.693 10.272C147.871 9.67852 146.684 9.17634 145.224 8.85676C143.808 8.40023 142.119 8.26327 140.43 8.26327C137.782 8.26327 135.636 8.99372 133.856 10.409C132.075 11.8242 130.751 14.3352 129.93 17.8048L128.012 26.1594H141.617L139.608 34.514H126.095L111.257 99.1592H101.351L116.188 34.514H105.916L107.879 26.2051Z" fill="white"/>
<path d="M240.274 25.0181H248.628L251.139 14.5178L261.411 10.3177L258.079 25.0181H268.579L266.296 34.3314H255.796L249.222 61.9517C249.085 62.5452 248.857 63.2756 248.765 63.8691C248.628 64.5996 248.537 65.1931 248.537 66.0149C248.537 67.4301 248.902 68.5258 249.724 69.1193C250.546 69.7128 251.733 70.078 253.422 70.078C255.203 70.078 257.485 69.6215 260.133 68.5258L260.955 75.4651C259.266 76.2869 257.622 76.8804 256.07 77.3825C254.518 77.8391 252.737 78.113 250.82 78.113C248.811 78.113 246.894 77.8847 245.204 77.3825C243.515 76.926 242.1 76.0586 241.004 74.8716C239.909 73.6846 239.224 72.2237 238.859 70.3519C238.493 68.4345 238.63 66.1518 239.224 63.5496L246.391 34.514H238.128L240.274 25.0181Z" fill="white"/>
</svg>

<svg width="480" height="100" fill="none" xmlns="http://www.w3.org/2000/svg"><path d="M39.08 29.446l1.095-3.698h8.492l-3.333 14.199h-8.537c-.137-2.146-1.096-3.927-2.968-5.16-1.917-1.323-4.52-1.916-7.898-1.916-2.74 0-5.022.593-6.574 1.689-1.552 1.095-2.374 2.51-2.374 4.2 0 1.552.457 2.739 1.552 3.606 1.096.822 3.242 1.918 6.574 3.242l2.74 1.095c5.752 2.374 9.541 4.794 11.595 7.168 2.055 2.374 2.968 5.25 2.968 8.857 0 4.52-1.69 8.126-5.159 10.865-3.47 2.74-8.491 4.063-14.928 4.063-6.072 0-10.5-1.415-13.149-4.291l-.593 3.333H0L3.333 62.5h8.582c0 2.374 1.096 4.29 3.105 5.615 2.009 1.324 4.794 2.009 8.263 2.009 2.968 0 5.387-.594 7.168-1.78 1.78-1.188 2.648-2.74 2.648-4.657 0-1.918-.73-3.47-2.283-4.657-1.552-1.187-4.2-2.648-7.898-4.063L19.22 53.55c-3.835-1.689-6.711-3.606-8.583-5.752-1.872-2.146-2.739-4.794-2.739-7.898 0-2.648.73-5.159 2.283-7.305 1.552-2.145 3.698-4.063 6.574-5.25 2.876-1.324 5.98-1.917 9.45-1.917 4.976-.41 9.405 1.004 12.874 4.017zm63.549 16.71c0 6.072-1.324 11.596-4.063 16.48-2.74 4.885-6.437 8.583-11.094 11.368-4.657 2.74-9.679 4.063-15.157 4.063-4.52 0-8.583-.958-11.961-2.739a19.553 19.553 0 01-7.898-7.624c-1.918-3.333-2.876-7.168-2.876-11.459 0-5.98 1.415-11.459 4.291-16.253 2.876-4.884 6.711-8.582 11.368-11.367 4.793-2.74 9.906-4.064 15.43-4.064 6.712 0 12.053 1.918 16.025 5.844 3.926 3.698 5.935 8.948 5.935 15.75zM72.771 68.982c3.835 0 7.168-1.095 10.136-3.104 2.967-2.009 5.387-4.885 7.03-8.355 1.69-3.47 2.511-7.304 2.511-11.23 0-4.064-1.187-7.168-3.606-9.45-2.374-2.283-5.616-3.333-9.907-3.333-3.47 0-6.711.958-9.542 2.967a21.481 21.481 0 00-6.94 7.99c-1.688 3.332-2.51 6.939-2.51 10.774.137 9.085 4.474 13.741 12.829 13.741zm118.38-22.826c0 6.072-1.324 11.596-4.063 16.48-2.74 4.885-6.437 8.583-11.094 11.368-4.657 2.74-9.679 4.063-15.157 4.063-4.52 0-8.583-.958-11.961-2.739-3.333-1.78-6.072-4.428-7.898-7.624-1.918-3.333-2.876-7.168-2.876-11.459 0-5.98 1.415-11.459 4.291-16.253 2.876-4.884 6.711-8.582 11.368-11.367 4.793-2.74 9.906-4.064 15.431-4.064 6.711 0 12.052 1.918 16.024 5.844 3.926 3.698 5.935 8.948 5.935 15.75zm-29.858 22.826c3.835 0 7.168-1.095 10.136-3.104 2.967-2.009 5.387-4.885 7.03-8.355 1.689-3.47 2.511-7.304 2.511-11.23 0-4.064-1.187-7.168-3.607-9.45-2.373-2.283-5.615-3.333-9.906-3.333-3.47 0-6.711.958-9.542 2.967a21.481 21.481 0 00-6.939 7.99c-1.689 3.332-2.511 6.939-2.511 10.774.183 9.085 4.337 13.741 12.828 13.741zm70.261-34.879c-6.209 0-11.368 2.009-15.294 6.209-3.926 4.2-6.802 10.044-8.491 17.577l-2.146 10.043h8.355l-2.009 8.583h-24.744l2.008-8.583h6.711l7.761-33.555h-7.898l2.146-8.72h16.481l-3.333 14.472c2.968-5.387 6.209-9.222 9.679-11.596 3.47-2.374 7.989-3.606 13.513-3.606h2.009l-2.283 9.313c-1.278-.046-2.1-.137-2.465-.137zm80.533-9.542c4.291 0 8.263 1.188 11.596 3.607 3.332 2.42 5.98 5.615 7.761 9.679 1.78 4.063 2.739 8.354 2.739 13.148 0 4.794-.822 9.222-2.648 13.285-1.78 4.063-4.291 7.305-7.624 9.678-3.241 2.374-7.031 3.607-11.368 3.607-5.387 0-10.272-2.146-14.837-6.71v5.843h-24.972V65.01h8.856V15.34h-8.856V3.652h24.972v27.94c4.109-4.656 8.902-7.03 14.381-7.03zm-4.429 40.221c3.105 0 5.479-1.324 7.305-3.835 1.78-2.51 2.648-5.98 2.648-10.272 0-4.2-.822-7.396-2.648-9.678-1.781-2.146-4.2-3.333-7.168-3.333-3.104 0-5.615 1.324-7.396 3.835-1.78 2.51-2.647 5.844-2.647 10.044 0 3.926.958 7.03 2.739 9.541 1.689 2.511 4.2 3.698 7.167 3.698zm79.118-18.718v18.9h8.263v11.688H370.66v-3.926c-4.657 3.104-9.222 4.793-13.879 4.793-5.615 0-10.043-1.415-13.376-4.29-3.333-2.877-5.022-6.712-5.022-11.597 0-5.159 1.917-9.313 5.615-12.418 3.698-3.104 8.72-4.656 14.929-4.656 2.146 0 4.063.228 5.752.73 1.69.457 3.698 1.324 5.844 2.374V43.6c0-2.648-.822-4.657-2.374-6.209-1.689-1.552-4.063-2.282-7.304-2.282-3.47 0-6.712 1.323-9.314 4.063l-13.011-2.374c3.926-7.99 12.189-12.053 24.607-12.053 8.492 0 14.564 1.78 18.262 5.25 3.561 3.287 5.387 8.766 5.387 16.07zm-26.434 21.23c2.877 0 6.346-1.781 10.272-5.251v-4.52c-3.469-2.282-6.711-3.332-9.541-3.332-2.283 0-4.063.593-5.387 1.689-1.187 1.095-1.781 2.648-1.781 4.656-.137 4.52 2.146 6.757 6.437 6.757zm62.637-3.334c2.739 0 5.752-1.187 8.948-3.697v-22.69h-7.761V25.612h24.014v39.17h8.354V76.47h-24.516v-4.2c-5.022 3.332-10.043 5.021-14.837 5.021-4.885 0-8.72-1.324-11.459-4.063-2.739-2.74-4.063-6.574-4.063-11.368V37.664h-7.624V25.748h23.785v32.004c0 2.374.365 4.063 1.187 4.884.868.868 1.918 1.324 3.972 1.324z" fill="#fff"/><path d="M468.313 64.782H480V76.47h-11.687V64.781z" fill="#F4B301"/><path d="M107.879 26.205h10.272l2.009-8.857c.73-3.104 1.689-5.752 2.967-7.898a24.154 24.154 0 014.52-5.387c1.78-1.415 3.698-2.374 5.981-3.104A26.683 26.683 0 01140.795 0c1.552 0 2.968.137 4.292.228 1.323.229 2.51.457 3.606.73 1.096.229 2.009.594 2.876.96.822.365 1.553.73 2.146.958l-5.022 7.396c-.822-.593-2.009-1.096-3.469-1.415-1.416-.457-3.105-.594-4.794-.594-2.648 0-4.794.73-6.574 2.146-1.781 1.415-3.105 3.926-3.926 7.396l-1.918 8.354h13.605l-2.009 8.355h-13.513l-14.838 64.645h-9.906l14.837-64.645h-10.272l1.963-8.309zm132.395-1.187h8.354l2.511-10.5 10.272-4.2-3.332 14.7h10.5l-2.283 9.313h-10.5l-6.574 27.62c-.137.594-.365 1.325-.457 1.918-.137.73-.228 1.324-.228 2.146 0 1.415.365 2.51 1.187 3.104.822.594 2.009.959 3.698.959 1.781 0 4.063-.457 6.711-1.552l.822 6.94c-1.689.82-3.333 1.414-4.885 1.916a18.682 18.682 0 01-5.25.731c-2.009 0-3.926-.228-5.616-.73-1.689-.457-3.104-1.324-4.2-2.511-1.095-1.187-1.78-2.648-2.145-4.52-.366-1.918-.229-4.2.365-6.802l7.167-29.036h-8.263l2.146-9.496z" fill="#fff"/></svg>
